X:1
T:Title
%%score { 1 | 2 }
L:1/8
M:3/4
K:D
V:1 treble nm="Grand Piano"
V:2 bass 
V:1
 z2 z2[Q:1/4=100] [FA]>[FA] | [Fd]3 [Fc] [Fd]>[GB] | [FA]4 [FA]>[GB] | [FA]4 F>D |[M:2/4] [CE]4 | %5
[M:1/4] [DF]>[FA] |[M:3/4] [Fd]3 [Fc] [Fd]>[GB] | [FA]4 A>B | A4 [CF]>[CE] |[M:2/4] D4 | %10
[M:1/4] [CE]>[DF] |[M:3/4] [EG]3 [EG] [GB]>[FA] | [FA]4 [FA]>[Fd] | c3 c B>B |[M:2/4] [CA]4 | %15
[M:1/4] A>A |[M:3/4] [Fd]3 [Fc] [Fd]>[GB] | [FA]4 A>B | A4 [CF]>[CE] |[M:2/4] D4 |] %20
V:2
 z2 z2 [D,A,]>[D,A,] | [D,A,]3 [D,A,] [D,A,]>[D,D] | [D,D]4 [D,D]>[D,D] | [D,D]4 [D,A,D]>[D,F,] | %4
[M:2/4] [A,,A,]4 |[M:1/4] [D,A,]>[D,A,] |[M:3/4] [D,A,]3 [D,A,] [D,A,]>[D,D] | %7
 [D,D]4 [D,F,D]>[D,G,D] | [D,F,D]4 [A,,A,]>[A,,G,] |[M:2/4] [D,F,]4 |[M:1/4] [A,,A,]>[A,,A,] | %11
[M:3/4] [A,,A,]3 [A,,A,] [A,,A,]>[A,,A,] | [D,A,]4 [D,A,]>[D,A,] | %13
 [E,A,E]3 [E,A,E] [E,^G,D]>[E,G,D] |[M:2/4] [A,,A,]4 |[M:1/4][K:treble] [A,G]>[A,G] | %16
[M:3/4][K:bass] [D,A,]3 [D,A,] [D,A,]>[D,D] | [D,D]4 [D,F,D]>[D,G,D] | [D,F,D]4 [A,,A,]>[A,,G,] | %19
[M:2/4] [D,F,]4 |] %20

